src/favicon.svg

<svg viewBox="0 0 2884 2884" xmlns="http://www.w3.org/2000/svg" xml:space="preserve" style="fill-rule:evenodd;clip-rule:evenodd;stroke-linejoin:round;stroke-miterlimit:2"><path style="fill:none" d="M0 0h800v800H0z" transform="scale(3.60441)"/><path d="M.749.31C.695.268.623.116.569-.01l.009.083a.027.027 0 0 1-.009.023.029.029 0 0 1-.025.006A8.662 8.662 0 0 1 .462.078L.446.165.443.178A.027.027 0 0 1 .411.2.027.027 0 0 1 .39.168L.393.154C.399.12.406.089.41.061a1.745 1.745 0 0 1-.247-.105C.043-.108-.011-.171.002-.229.01-.268.037-.295.08-.308a.221.221 0 0 1 .059-.008c.088 0 .194.044.246.094a.273.273 0 0 1 .084.245L.52.039.495-.202a.027.027 0 0 1 .021-.029.028.028 0 0 1 .032.017c.028.078.094.245.154.362A.274.274 0 0 0 .697.12C.674-.012.68-.107.715-.163A.026.026 0 0 1 .74-.176c.01.001.019.007.023.017a.814.814 0 0 0 .068.136L.83-.071c.002-.095.02-.153.056-.176.013-.008.03-.005.038.008a.027.027 0 0 1-.008.037C.883-.181.878-.057.891.047a.027.027 0 0 1-.01.025.03.03 0 0 1-.027.004C.835.068.805.047.756-.045l-.015-.03a.995.995 0 0 0 .05.355.027.027 0 0 1-.01.031.03.03 0 0 1-.015.005A.027.027 0 0 1 .749.31ZM.095-.256c-.023.007-.036.02-.04.039-.005.023.027.068.134.126.062.033.14.066.227.096a.217.217 0 0 0-.069-.188.331.331 0 0 0-.208-.078.152.152 0 0 0-.044.005Zm.851-.007c0-.015.012-.027.027-.027S1-.278 1-.263a.028.028 0 0 1-.027.028.028.028 0 0 1-.027-.028Z" style="fill:#ff4eaa;fill-rule:nonzero" transform="matrix(2578.08309 0 0 -2578.08309 152.723 1441.764)"/></svg>

<?xml version="1.0" encoding="UTF-8" standalone="no"?>
<!DOCTYPE svg PUBLIC "-//W3C//DTD SVG 1.1//EN" "http://www.w3.org/Graphics/SVG/1.1/DTD/svg11.dtd">
<svg width="100%" height="100%" viewBox="0 0 2884 2884" version="1.1" xmlns="http://www.w3.org/2000/svg" xmlns:xlink="http://www.w3.org/1999/xlink" xml:space="preserve" xmlns:serif="http://www.serif.com/" style="fill-rule:evenodd;clip-rule:evenodd;stroke-linejoin:round;stroke-miterlimit:2;">
    <g transform="matrix(1,0,0,1,0,-224.903)">
        <g id="Page-1" serif:id="Page 1" transform="matrix(3.60441,0,0,3.60441,0,224.903)">
            <rect x="0" y="0" width="800" height="800" style="fill:none;"/>
            <g transform="matrix(715.258,0,0,-715.258,42.3711,400)">
                <g id="Layer-1" serif:id="Layer 1">
                    <path d="M0.749,0.31C0.695,0.268 0.623,0.116 0.569,-0.01L0.578,0.073C0.579,0.082 0.575,0.091 0.569,0.096C0.562,0.102 0.552,0.104 0.544,0.102C0.516,0.094 0.489,0.086 0.462,0.078C0.458,0.105 0.452,0.134 0.446,0.165L0.443,0.178C0.44,0.193 0.426,0.203 0.411,0.2C0.396,0.197 0.387,0.183 0.39,0.168L0.393,0.154C0.399,0.12 0.406,0.089 0.41,0.061C0.315,0.028 0.23,-0.008 0.163,-0.044C0.043,-0.108 -0.011,-0.171 0.002,-0.229C0.01,-0.268 0.037,-0.295 0.08,-0.308C0.098,-0.313 0.118,-0.316 0.139,-0.316C0.227,-0.316 0.333,-0.272 0.385,-0.222C0.463,-0.146 0.478,-0.068 0.469,0.023C0.486,0.028 0.503,0.033 0.52,0.039L0.495,-0.202C0.494,-0.216 0.503,-0.228 0.516,-0.231C0.529,-0.234 0.543,-0.227 0.548,-0.214C0.576,-0.136 0.642,0.031 0.702,0.148C0.701,0.139 0.699,0.129 0.697,0.12C0.674,-0.012 0.68,-0.107 0.715,-0.163C0.72,-0.172 0.73,-0.177 0.74,-0.176C0.75,-0.175 0.759,-0.169 0.763,-0.159C0.785,-0.103 0.81,-0.056 0.831,-0.023C0.831,-0.038 0.83,-0.055 0.83,-0.071C0.832,-0.166 0.85,-0.224 0.886,-0.247C0.899,-0.255 0.916,-0.252 0.924,-0.239C0.932,-0.226 0.928,-0.21 0.916,-0.202C0.883,-0.181 0.878,-0.057 0.891,0.047C0.892,0.056 0.889,0.066 0.881,0.072C0.873,0.078 0.863,0.079 0.854,0.076C0.835,0.068 0.805,0.047 0.756,-0.045C0.751,-0.055 0.746,-0.065 0.741,-0.075C0.725,0.035 0.769,0.21 0.791,0.28C0.795,0.292 0.791,0.304 0.781,0.311C0.776,0.314 0.771,0.316 0.766,0.316C0.76,0.316 0.754,0.314 0.749,0.31ZM0.095,-0.256C0.072,-0.249 0.059,-0.236 0.055,-0.217C0.05,-0.194 0.082,-0.149 0.189,-0.091C0.251,-0.058 0.329,-0.025 0.416,0.005C0.421,-0.068 0.406,-0.125 0.347,-0.183C0.301,-0.229 0.208,-0.261 0.139,-0.261C0.123,-0.261 0.108,-0.26 0.095,-0.256ZM0.946,-0.263C0.946,-0.278 0.958,-0.29 0.973,-0.29C0.988,-0.29 1,-0.278 1,-0.263C1,-0.248 0.988,-0.235 0.973,-0.235C0.958,-0.235 0.946,-0.248 0.946,-0.263Z" style="fill:rgb(255,78,170);fill-rule:nonzero;"/>
                </g>
            </g>
        </g>
    </g>
</svg>
